!!!COM: Palestrina, Giovanni Perluigi da
!!!OPR: Missa Assumpta est Maria
!!!OMD: Kyrie
!!!OTL: alter Christe
**kern	**kern	**kern	**kern
*Itenor	*Icalto	*Icant	*Icant
!Tenor	!Altus	!Cantus 2	!Cantus 1
*clefGv2	*clefG2	*clefG2	*clefG2
*k[]	*k[]	*k[]	*k[]
*G:mix	*G:mix	*G:mix	*G:mix
*M4/2	*M4/2	*M4/2	*M4/2
=62	=62	=62	=62
0g	0b	0r	0dd
=63	=63	=63	=63
1c	1cc	0r	1ee
[1g	2.b	.	2.dd
.	4a	.	4cc
=64	=64	=64	=64
2g]	2g	0dd	2b
2f#	2a	.	2a
2g	2b	.	2g
2f	[2a	.	2a
=65	=65	=65	=65
2e	4a]	1ee	2b
.	4g	.	.
2c	1g	.	2cc
1d	.	2.dd	1a
.	2f#	.	.
.	.	4cc	.
=66	=66	=66	=66
0r	2g	2b	2.dd
.	2d	2a	.
.	.	.	4cc
.	2e	2g	2b
.	2f#	2a	[2a
=67	=67	=67	=67
0r	2g	2b	4a]
.	.	.	4g
.	2c	2cc	1g
.	1d	1a	.
.	.	.	2f#
=68	=68	=68	=68
0g	0r	0b	4g
.	.	.	4a
.	.	.	4b
.	.	.	4cc
.	.	.	2dd
.	.	.	[2gg
=69	=69	=69	=69
1a	2r	1cc	2gg]
.	1cc	.	2ff
2.g	.	2r	2ee
.	2b	[2gg	2dd
4f	.	.	.
=70	=70	=70	=70
2e	2g	2gg]	2cc
2d	2a	2ff	2dd
2c	2cc	2ee	2ee
2d	4b	[2dd	2ff
.	4a	.	.
=71	=71	=71	=71
2e	2g	4dd]	2ee
.	.	4cc	.
2f	2a	1cc	2cc
1d	1f	.	1dd
.	.	2b	.
=72	=72	=72	=72
1c	2g	1cc	1ee
.	1cc	.	.
2r	.	1g	[1dd
[2g	2b	.	.
=73	=73	=73	=73
2g]	1a	0r	1dd]
2f	.	.	.
2e	2g	.	1r
[2d	2f	.	.
=74	=74	=74	=74
4d]	1e	1r	0r
4c	.	.	.
1c	.	.	.
.	1d	2r	.
2B	.	[2dd	.
=75	=75	=75	=75
1e	1g	2dd]	2r
.	.	2cc	1gg
1d	1r	2b	.
.	.	[2a	2ff
=76	=76	=76	=76
2c	2r	4a]	2ee
.	.	4g	.
2B	2d	1g	2.dd
1A	2e	.	.
.	.	.	4cc
.	2c	2f#	[2cc
=77	=77	=77	=77
1G	1d	1g	2cc]
.	.	.	2b
1r	1e	2r	4cc
.	.	.	4b
.	.	[2gg	4b
.	.	.	8a
.	.	.	8g
=78	=78	=78	=78
2r	1d	2gg]	2.a
2d	.	2ff	.
.	.	.	4b
2c	1r	2ee	2cc
2B	.	[2dd	2dd
=79	=79	=79	=79
1A	1r	4dd]	2ee
.	.	4cc	.
.	.	1cc	2cc
1G	1g	.	2dd
.	.	2b	2g
=80	=80	=80	=80
2r	2f	1cc	2a
2c	2e	.	1cc
2d	1d	1r	.
[2f	.	.	2b
=81	=81	=81	=81
2f]	2c	2r	2a
2e	1cc	2cc	2g
1d	.	2dd	2.f
.	2b	[2ff	.
.	.	.	4g
=82	=82	=82	=82
1c	1cc	2ff]	4a
.	.	.	4b
.	.	2ee	1cc
1g	2r	1dd	.
.	2g	.	2b
=83	=83	=83	=83
0r	2a	4cc	2.cc
.	.	4dd	.
.	1cc	4ee	.
.	.	4ff	4dd
.	.	2gg	4ee
.	.	.	4ff
.	2b	2dd	[2gg
=84	=84	=84	=84
2r	1a	2ee	2gg]
2d	.	2dd	2ff#
2e	2.g	2.b	1gg
[2g	.	.	.
.	4a	4cc	.
=85	=85	=85	=85
2g]	2b	1dd	0r
2f	2.a	.	.
1e	.	4cc	.
.	4g	4b	.
.	[2g	4b	.
.	.	8a	.
.	.	8g	.
=86	=86	=86	=86
1d	2g]	2.a	2r
.	2f#	.	2dd
.	.	4b	.
2.c	2g	[1cc	2ee
.	2g	.	[2gg
4B	.	.	.
=87	=87	=87	=87
1A	2a	1cc]	2gg]
.	1cc	.	2ff
1G	.	1g	2ee
.	2b	.	2dd
=88	=88	=88	=88
0r	1a	2a	1cc
.	.	1cc	.
.	[1g	.	2dd
.	.	2b	[2ee
=89	=89	=89	=89
2r	2g]	1a	4ee]
.	.	.	4dd
2d	2f	.	1dd
2e	1e	1g	.
[2g	.	.	2cc
=90	=90	=90	=90
2g]	1d	2r	2b
2f	.	2dd	2a
1e	2r	2ee	2.b
.	2g	2gg	.
.	.	.	4cc
=91	=91	=91	=91
2d	2a	2ff	2dd
2c	1cc	2ee	2g
1g	.	1dd	2r
.	2b	.	2dd
=92	=92	=92	=92
2c	2a	1cc	2ee
2e	2g	.	1gg
1d	2.a	2r	.
.	.	2dd	2ff
.	4b	.	.
=93	=93	=93	=93
1r	2cc	2ee	2ee
.	2b	1gg	2dd
2r	1a	.	2cc
2d	.	2ff	2dd
=94	=94	=94	=94
2e	[0g	2ee	2.b
2.g	.	4dd	.
.	.	4cc	4cc
.	.	1b	2dd
4f	.	.	.
4e	.	.	[2ee
4d	.	.	.
=95	=95	=95	=95
2c	1g_	2cc	2ee]
2B	.	2dd	2dd
1c	1g_	1ee	1cc
=96	=96	=96	=96
0G	0g]	0dd	0b
==	==	==	==
*-	*-	*-	*-
!!!CDT: 1525/^1526/-1594/2/2
!!!OCY: Italia
!!!AGN: Mass (Parody)
!!!AST: renaissance, vocal
!!!ASW: Motet (Palestrina)
!!!PWK: Masses, Book 9
!!!RNB: Cadence finals: C
!!!YOR: Le Opere Complete, v. 25, p. 209
!!!YOO: Rome, Italy: Fratelli Scalera
!!!END: 1992//
!!!EED: John Miller
!!!YEC: Copyright 2000, John Miller
!!!YEN: United States of America
!!!YEM: Rights to all derivative electronic formats reserved.
!!!YEM: Refer to licensing agreement for further details.
!!!YEM: This file must be accompanied by the licensing agreement.
!!!YEM: A copy of the licensing agreement may be found at http://www.music-cog.ohio-state.edu/HumdrumDatabases/Palestrina/license.txt
!!!EMD: converted to Humdrum by Bret Aarden
